X: 7836
T: Coming Home From The Bog
R: reel
M: 4/4
K: Gmajor
GE|:D2 DE GABG|cGBG AGEG|D2 DE GABG|AGEF G2 GE|
D2 DE GABG|cGBG AGEG|D2 DE GABG|1 AGEF G2 GE:|2 AGEF G2 GA||
|:Bd ~d2 edBc|d2 BG AGED|Bd ~d2 edBc|dedc BGGA|
Bd ~d2 edBc|d2 BG AGED|gfgd efge|1 dBAB G2 GA:|2 dBAB G2 GE||

